svg/blobs-icons/no-decorations/cleaning-shovel.svg

<svg xmlns="http://www.w3.org/2000/svg" xmlns:xlink="http://www.w3.org/1999/xlink" preserveAspectRatio="xMidYMid" width="221" height="220" viewBox="0 0 221 220"><defs><style>.cls-3{fill:#142a3b}.cls-4{fill:#020403}.cls-5{fill:#ff3a2f}.cls-6{fill:#010101;opacity:.35}</style></defs><g id="group-78svg"><path d="M160.777 75.258s-15.679-15.679-15.679-15.679S203.904.772 203.904.772C204.945-.269 206.633-.269 207.673.772l11.909 11.909c1.041 1.041 1.041 2.729.0 3.769L160.777 75.258z" id="path-1" class="cls-3" fill-rule="evenodd"/><path d="M213.628 6.727C211.153 4.251 207.802 3.241 204.574 3.595 204.647 3.666 204.734 3.714 204.805 3.785 209.135 8.114 209.134 15.134 204.805 19.464l-49.91 49.912S160.777 75.257 160.777 75.257s52.851-52.852 52.851-52.852C217.958 18.075 217.958 11.056 213.628 6.727z" id="path-2" class="cls-4" fill-rule="evenodd"/><path d="M101.705 212.42S7.939 118.652 7.939 118.652C4.039 114.752 4.039 108.429 7.939 104.528L51.118 61.349c29.793-29.794 78.096-29.794 107.889.0 29.793 29.794 29.792 78.098.0 107.892L115.829 212.42C111.929 216.32 105.605 216.32 101.705 212.42z" id="path-3" class="cls-5" fill-rule="evenodd"/><path d="M159.007 61.349s0 0 0 0c-29.793-29.795-78.097-29.795-107.89.0L42.804 69.662C72.598 39.874 120.898 39.874 150.688 69.666c29.793 29.795 29.793 78.099.0 107.893l-41.921 41.922s0 0 0 0 50.24-50.24 50.24-50.24c29.793-29.794 29.793-78.099.0-107.892z" id="path-4" class="cls-6" fill-rule="evenodd"/><path d="M108.767 219.481S.001 110.713.001 110.713 10.996 99.718 10.996 99.718 119.761 208.487 119.761 208.487s-10.994 10.994-10.994 10.994z" id="path-5" class="cls-3" fill-rule="evenodd"/></g></svg>

<svg xmlns="http://www.w3.org/2000/svg" xmlns:xlink="http://www.w3.org/1999/xlink" preserveAspectRatio="xMidYMid" width="221" height="220" viewBox="0 0 221 220">
  <defs>
    <style>

      .cls-3 {
        fill: #142a3b;
      }

      .cls-4 {
        fill: #020403;
      }

      .cls-5 {
        fill: #ff3a2f;
      }

      .cls-6 {
        fill: #010101;
        opacity: 0.35;
      }
    </style>
  </defs>
  <g id="group-78svg">
    <path d="M160.777,75.258 C160.777,75.258 145.098,59.579 145.098,59.579 C145.098,59.579 203.904,0.772 203.904,0.772 C204.945,-0.269 206.633,-0.269 207.673,0.772 C207.673,0.772 219.582,12.681 219.582,12.681 C220.623,13.722 220.623,15.410 219.582,16.450 C219.582,16.450 160.777,75.258 160.777,75.258 Z" id="path-1" class="cls-3" fill-rule="evenodd"/>
    <path d="M213.628,6.727 C211.153,4.251 207.802,3.241 204.574,3.595 C204.647,3.666 204.734,3.714 204.805,3.785 C209.135,8.114 209.134,15.134 204.805,19.464 C204.805,19.464 154.895,69.376 154.895,69.376 C154.895,69.376 160.777,75.257 160.777,75.257 C160.777,75.257 213.628,22.405 213.628,22.405 C217.958,18.075 217.958,11.056 213.628,6.727 Z" id="path-2" class="cls-4" fill-rule="evenodd"/>
    <path d="M101.705,212.420 C101.705,212.420 7.939,118.652 7.939,118.652 C4.039,114.752 4.039,108.429 7.939,104.528 C7.939,104.528 51.118,61.349 51.118,61.349 C80.911,31.555 129.214,31.555 159.007,61.349 C159.007,61.349 159.007,61.349 159.007,61.349 C188.800,91.143 188.799,139.447 159.007,169.241 C159.007,169.241 115.829,212.420 115.829,212.420 C111.929,216.320 105.605,216.320 101.705,212.420 Z" id="path-3" class="cls-5" fill-rule="evenodd"/>
    <path d="M159.007,61.349 C159.007,61.349 159.007,61.349 159.007,61.349 C129.214,31.554 80.910,31.554 51.117,61.349 C51.117,61.349 42.804,69.662 42.804,69.662 C72.598,39.874 120.898,39.874 150.688,69.666 C150.688,69.666 150.688,69.666 150.688,69.666 C180.481,99.461 180.481,147.765 150.688,177.559 C150.688,177.559 108.767,219.481 108.767,219.481 C108.767,219.481 108.767,219.481 108.767,219.481 C108.767,219.481 159.007,169.241 159.007,169.241 C188.800,139.447 188.800,91.142 159.007,61.349 Z" id="path-4" class="cls-6" fill-rule="evenodd"/>
    <path d="M108.767,219.481 C108.767,219.481 0.001,110.713 0.001,110.713 C0.001,110.713 10.996,99.718 10.996,99.718 C10.996,99.718 119.761,208.487 119.761,208.487 C119.761,208.487 108.767,219.481 108.767,219.481 Z" id="path-5" class="cls-3" fill-rule="evenodd"/>
  </g>
</svg>
